material/.icons/material/microsoft-onenote.svg

<svg xmlns="http://www.w3.org/2000/svg" viewBox="0 0 24 24"><path d="M21.17 3.25q.33 0 .59.25.24.24.24.58v15.84q0 .34-.24.58-.26.25-.59.25H7.83q-.33 0-.59-.25-.24-.24-.24-.58V17H2.83q-.33 0-.59-.24Q2 16.5 2 16.17V7.83q0-.33.24-.59Q2.5 7 2.83 7H7V4.08q0-.34.24-.58.26-.25.59-.25M5.8 11.17l2.36 4.1h1.49V8.73H8.2v4.19L5.93 8.73H4.35v6.54H5.8m14.95 4.23V17h-2.5v2.5m2.5-3.75v-2.5h-2.5v2.5m2.5-3.75V9.5h-2.5V12m2.5-3.75V4.5H8.25V7h2.92q.33 0 .59.24.24.26.24.59v8.34q0 .33-.24.59-.26.24-.59.24H8.25v2.5H17V8.25z"/></svg>

<?xml version="1.0" encoding="UTF-8"?><!DOCTYPE svg PUBLIC "-//W3C//DTD SVG 1.1//EN" "http://www.w3.org/Graphics/SVG/1.1/DTD/svg11.dtd"><svg xmlns="http://www.w3.org/2000/svg" xmlns:xlink="http://www.w3.org/1999/xlink" version="1.1" id="mdi-microsoft-onenote" width="24" height="24" viewBox="0 0 24 24"><path d="M21.17 3.25Q21.5 3.25 21.76 3.5 22 3.74 22 4.08V19.92Q22 20.26 21.76 20.5 21.5 20.75 21.17 20.75H7.83Q7.5 20.75 7.24 20.5 7 20.26 7 19.92V17H2.83Q2.5 17 2.24 16.76 2 16.5 2 16.17V7.83Q2 7.5 2.24 7.24 2.5 7 2.83 7H7V4.08Q7 3.74 7.24 3.5 7.5 3.25 7.83 3.25M5.8 11.17L8.16 15.27H9.65V8.73H8.2V12.92L5.93 8.73H4.35V15.27H5.8M20.75 19.5V17H18.25V19.5M20.75 15.75V13.25H18.25V15.75M20.75 12V9.5H18.25V12M20.75 8.25V4.5H8.25V7H11.17Q11.5 7 11.76 7.24 12 7.5 12 7.83V16.17Q12 16.5 11.76 16.76 11.5 17 11.17 17H8.25V19.5H17V8.25Z" /></svg>
